X:14
M:6/8
L:1/8
K:D
| AdA GBG | FAd fed | efe ABc | dfe dcB | 
| FBc dcB | fBc dcB | cBc FAF | fgf edc | 

